X: 18
T:Canu Cwnsela (Wassail Song) (Mari Lwyd)
M:3/4
L:1/16
C:Traditional Welsh
K:G
|B2 \
|e2B4G2|F2A4GF|E2E4D2|d2d4f2 \
|e2B4G2|F2A4GF|E2E4D2|d2d4B2 |
|e2B4G2|F2A4GF|E2E4D2|d2d4f2 \
|e2B4G2|A2F4D2|F2G4||

